pk/smart-optimization.svg

<svg viewBox="0 0 48 48" fill="none" xmlns="http://www.w3.org/2000/svg" height="1em" width="1em">
  <path fill-rule="evenodd" clip-rule="evenodd" d="M24.0002 45C27.2208 45 32.7276 40.8 32.7276 24C32.7276 7.2 27.2208 3 24.0002 3C20.7797 3 15.2729 7.48302 15.2729 24C15.2729 40.517 20.7797 45 24.0002 45Z" stroke="black" stroke-width="4" stroke-linecap="round" stroke-linejoin="round"/>
  <path fill-rule="evenodd" clip-rule="evenodd" d="M5.10515 35.0001C6.71545 37.8124 13.2479 40.4211 28.364 31.6211C43.48 22.8211 44.5057 15.8124 42.8954 13.0001C41.2851 10.1878 34.4981 7.72728 19.6367 16.3791C4.77521 25.0308 3.49489 32.1878 5.10515 35.0001Z" stroke="black" stroke-width="4" stroke-linecap="round" stroke-linejoin="round"/>
  <path fill-rule="evenodd" clip-rule="evenodd" d="M5.10506 13.0001C3.4948 15.8124 4.52046 22.8211 19.6366 31.6211C34.7527 40.4211 41.285 37.8124 42.8953 35.0001C44.5056 32.1878 43.2253 25.0308 28.3638 16.3791C13.5024 7.72728 6.71537 10.1878 5.10506 13.0001Z" stroke="black" stroke-width="4" stroke-linecap="round" stroke-linejoin="round"/>
</svg>

<svg viewBox="0 0 48 48" fill="none" xmlns="http://www.w3.org/2000/svg" height="1em" width="1em">
  <path clip-rule="evenodd" d="M24 45c3.22 0 8.728-4.2 8.728-21S27.22 3 24 3c-3.22 0-8.727 4.483-8.727 21S20.78 45 24 45Z" stroke="#000" stroke-width="4" stroke-linecap="round" stroke-linejoin="round"/>
  <path clip-rule="evenodd" d="M5.105 35c1.61 2.812 8.143 5.421 23.259-3.379s16.142-15.809 14.531-18.62c-1.61-2.813-8.397-5.274-23.258 3.378C4.775 25.031 3.495 32.188 5.105 35Z" stroke="#000" stroke-width="4" stroke-linecap="round" stroke-linejoin="round"/>
  <path clip-rule="evenodd" d="M5.105 13c-1.61 2.812-.585 9.821 14.532 18.621 15.116 8.8 21.648 6.191 23.258 3.38 1.61-2.813.33-9.97-14.531-18.622C13.502 7.727 6.715 10.188 5.105 13Z" stroke="#000" stroke-width="4" stroke-linecap="round" stroke-linejoin="round"/>
</svg>
